src/logo.svg

<?xml version="1.0" encoding="UTF-8" standalone="no"?><!DOCTYPE svg PUBLIC "-//W3C//DTD SVG 1.1//EN" "http://www.w3.org/Graphics/SVG/1.1/DTD/svg11.dtd"><svg width="100%" height="100%" viewBox="0 0 4267 4267" version="1.1" xmlns="http://www.w3.org/2000/svg" xmlns:xlink="http://www.w3.org/1999/xlink" xml:space="preserve" xmlns:serif="http://www.serif.com/" style="fill-rule:evenodd;clip-rule:evenodd;stroke-linejoin:round;stroke-miterlimit:2;"><path d="M3038.32,2982.28l892.221,892.217l-0,-1784.83l-631.104,631.1l-261.117,261.508Z" style="fill:#453a62;fill-rule:nonzero;"/><path d="M3930.54,1898.69l-0,-1784.43l-892.217,892.213l353.617,354.016l538.6,538.205Z" style="fill:#453a62;fill-rule:nonzero;"/><path d="M1899.36,58.958l-1784.75,0l892.175,891.388l892.57,-891.388Z" style="fill:#453a62;fill-rule:nonzero;"/><path d="M1102.08,1046.04l892.621,892.616l892.221,-892.616l-1784.84,-0Z" style="fill:#453a62;fill-rule:nonzero;"/><path d="M1101.68,967.292l1786.08,-0l-892.641,-893.038l-893.434,893.038Z" style="fill:#453a62;fill-rule:nonzero;"/><path d="M2090,2033.96l892.221,892.225l261.938,-261.145l631.079,-631.08l-1785.24,0Z" style="fill:#453a62;fill-rule:nonzero;"/><path d="M3876.78,1954.79l-589.688,-587.325l-304.883,-304.88l-892.2,892.205l1786.77,-0Z" style="fill:#453a62;fill-rule:nonzero;"/><path d="M336.792,392.571l-0,1785.24l892.621,-893.013l-892.621,-892.229Z" style="fill:#5e5086;fill-rule:nonzero;"/><path d="M336.792,4152.85l892.616,-892.225l-892.616,-892.617l-0,1784.84Z" style="fill:#5e5086;fill-rule:nonzero;"/><path d="M4153.18,4208.96l-892.637,-893.029l-892.234,893.029l1784.87,0Z" style="fill:#8f4e8b;fill-rule:nonzero;"/><path d="M1380.03,3221.04l1785.2,-0l-892.209,-892.213l-892.996,892.213Z" style="fill:#8f4e8b;fill-rule:nonzero;"/><path d="M3165.62,3300.62l-1785.15,0l892.571,891.392l892.579,-891.392Z" style="fill:#8f4e8b;fill-rule:nonzero;"/><path d="M2177.32,2233.12l-892.208,-892.208l-892.6,892.208l1784.81,0Z" style="fill:#5e5086;fill-rule:nonzero;"/><path d="M392.504,2312.29l892.613,892.616l892.225,-892.616l-1784.84,-0Z" style="fill:#5e5086;fill-rule:nonzero;"/></svg>

<?xml version="1.0" encoding="UTF-8" standalone="no"?>
<!DOCTYPE svg PUBLIC "-//W3C//DTD SVG 1.1//EN" "http://www.w3.org/Graphics/SVG/1.1/DTD/svg11.dtd">
<svg width="4267px" height="4267px" version="1.1" xmlns="http://www.w3.org/2000/svg" xmlns:xlink="http://www.w3.org/1999/xlink" xml:space="preserve" xmlns:serif="http://www.serif.com/" style="fill-rule:evenodd;clip-rule:evenodd;stroke-linejoin:round;stroke-miterlimit:2;">
    <path d="M3038.32,2982.28L3930.54,3874.5L3930.54,2089.67L3299.44,2720.77L3038.32,2982.28Z" style="fill:#453a62;fill-rule:nonzero;"/>
    <path d="M3930.54,1898.69L3930.54,114.254L3038.33,1006.47L3391.94,1360.48L3930.54,1898.69Z" style="fill:#453a62;fill-rule:nonzero;"/>
    <path d="M1899.36,58.958L114.617,58.958L1006.79,950.346L1899.36,58.958Z" style="fill:#453a62;fill-rule:nonzero;"/>
    <path d="M1102.08,1046.04L1994.7,1938.66L2886.93,1046.04L1102.08,1046.04Z" style="fill:#453a62;fill-rule:nonzero;"/>
    <path d="M1101.68,967.292L2887.76,967.292L1995.12,74.254L1101.68,967.292Z" style="fill:#453a62;fill-rule:nonzero;"/>
    <path d="M2090,2033.96L2982.22,2926.18L3244.16,2665.04L3875.24,2033.96L2090,2033.96Z" style="fill:#453a62;fill-rule:nonzero;"/>
    <path d="M3876.78,1954.79L3287.09,1367.47L2982.2,1062.59L2090,1954.79L3876.78,1954.79Z" style="fill:#453a62;fill-rule:nonzero;"/>
    <path d="M336.792,392.571L336.792,2177.81L1229.41,1284.8L336.792,392.571Z" style="fill:#5e5086;fill-rule:nonzero;"/>
    <path d="M336.792,4152.85L1229.41,3260.62L336.792,2368L336.792,4152.85Z" style="fill:#5e5086;fill-rule:nonzero;"/>
    <path d="M4153.18,4208.96L3260.54,3315.93L2368.31,4208.96L4153.18,4208.96Z" style="fill:#8f4e8b;fill-rule:nonzero;"/>
    <path d="M1380.03,3221.04L3165.24,3221.04L2273.03,2328.83L1380.03,3221.04Z" style="fill:#8f4e8b;fill-rule:nonzero;"/>
    <path d="M3165.62,3300.62L1380.47,3300.62L2273.04,4192.02L3165.62,3300.62Z" style="fill:#8f4e8b;fill-rule:nonzero;"/>
    <path d="M2177.32,2233.12L1285.12,1340.92L392.517,2233.12L2177.32,2233.12Z" style="fill:#5e5086;fill-rule:nonzero;"/>
    <path d="M392.504,2312.29L1285.12,3204.91L2177.34,2312.29L392.504,2312.29Z" style="fill:#5e5086;fill-rule:nonzero;"/>
</svg>
